icons-dark/apps/48/quassel.svg

<svg width="48" xmlns="http://www.w3.org/2000/svg" height="48" xmlns:xlink="http://www.w3.org/1999/xlink">
 <defs>
  <linearGradient id="a" y1="44" y2="4" x2="0" gradientUnits="userSpaceOnUse">
   <stop stop-color="#092240"/>
   <stop offset="1" stop-color="#115570"/>
  </linearGradient>
  <linearGradient id="b" y1="30" y2="14" x2="0" gradientUnits="userSpaceOnUse">
   <stop stop-color="#c2d4e7"/>
   <stop offset="1" stop-color="#e0e3f7"/>
  </linearGradient>
  <linearGradient id="c" y1="14" x1="7" y2="34" x2="27" gradientUnits="userSpaceOnUse">
   <stop stop-opacity=".691"/>
   <stop offset="1" stop-opacity="0"/>
  </linearGradient>
  <linearGradient xlink:href="#b" id="d" y1="529.8" y2="525.8" x2="0" gradientUnits="userSpaceOnUse" gradientTransform="translate(28)"/>
  <linearGradient xlink:href="#b" id="e" y1="529.8" y2="525.8" gradientUnits="userSpaceOnUse" x2="0" gradientTransform="translate(22)"/>
  <linearGradient xlink:href="#c" id="f" y1="27" x1="32" y2="32" gradientUnits="userSpaceOnUse" x2="38" gradientTransform="translate(0 1)"/>
  <linearGradient xlink:href="#c" id="g" y1="27" x1="32" y2="32" gradientUnits="userSpaceOnUse" x2="38" gradientTransform="translate(6 1)"/>
 </defs>
 <g transform="translate(-384.57-499.8)">
  <g fill-rule="evenodd">
   <path fill="url(#a)" d="m4 4v30h20l11 10v-10h9v-30z" transform="translate(384.57 499.8)"/>
   <path opacity=".2" fill="url(#c)" d="m14 14v4l2 2h-8l6 6h-6l8 8h24l-20-20h-2v4z" transform="translate(384.57 499.8)"/>
  </g>
  <path fill="url(#b)" d="m12 14v4h-4v2h4v4h-4v2h4v4h2v-4h4v4h2v-4h4v-2h-4v-4h4v-2h-4v-4h-2v4h-4v-4zm2 6h4v4h-4z" transform="translate(384.57 499.8)"/>
  <path opacity=".2" fill="url(#f)" d="m33 27l-2 2 6 5h4z" transform="translate(384.57 499.8)"/>
  <path opacity=".2" fill="url(#g)" d="m39 27l-2 2 6 5h1v-2.625z" transform="translate(384.57 499.8)"/>
  <rect width="4" x="420.57" y="525.8" fill="url(#d)" rx="2" height="4"/>
  <rect width="4" x="414.57" y="525.8" fill="url(#e)" rx="2" height="4"/>
 </g>
</svg>

<?xml version="1.0" encoding="UTF-8" standalone="no"?>

<!-- Created with Inkscape (http://www.inkscape.org/) -->
<svg width="48" version="1.1" xmlns="http://www.w3.org/2000/svg" height="48" xmlns:xlink="http://www.w3.org/1999/xlink" xmlns:inkscape="http://www.inkscape.org/namespaces/inkscape">
 <defs id="defs5455">
  <linearGradient inkscape:collect="always" id="linearGradient4418">
   <stop style="stop-color:#c2d4e7" id="stop4420"/>
   <stop offset="1" style="stop-color:#e0e3f7" id="stop4422"/>
  </linearGradient>
  <linearGradient inkscape:collect="always" id="linearGradient4823">
   <stop style="stop-opacity:0.691244" id="stop4825"/>
   <stop offset="1" style="stop-opacity:0" id="stop4827"/>
  </linearGradient>
  <linearGradient inkscape:collect="always" id="linearGradient4143">
   <stop style="stop-color:#092240" id="stop4145"/>
   <stop offset="1" style="stop-color:#115570" id="stop4147"/>
  </linearGradient>
  <linearGradient inkscape:collect="always" xlink:href="#linearGradient4143" id="linearGradient4416" y1="43.999973" y2="4" x2="0" gradientUnits="userSpaceOnUse"/>
  <linearGradient inkscape:collect="always" xlink:href="#linearGradient4418" id="linearGradient4441" y1="30" y2="14" x2="0" gradientUnits="userSpaceOnUse"/>
  <linearGradient inkscape:collect="always" xlink:href="#linearGradient4823" id="linearGradient4545" y1="14" x1="7" y2="34" x2="27" gradientUnits="userSpaceOnUse"/>
  <linearGradient inkscape:collect="always" xlink:href="#linearGradient4418" id="linearGradient4555" y1="529.79797" y2="525.79797" x2="0" gradientUnits="userSpaceOnUse" gradientTransform="matrix(1 0 0 1 28 0)"/>
  <linearGradient inkscape:collect="always" xlink:href="#linearGradient4418" id="linearGradient4559" y1="529.79797" y2="525.79797" gradientUnits="userSpaceOnUse" x2="0" gradientTransform="matrix(1 0 0 1 22 0)"/>
  <linearGradient inkscape:collect="always" xlink:href="#linearGradient4823" id="linearGradient4612" y1="27" x1="32" y2="32" gradientUnits="userSpaceOnUse" x2="38" gradientTransform="matrix(1 0 0 1 0 1)"/>
  <linearGradient inkscape:collect="always" xlink:href="#linearGradient4823" id="linearGradient4628" y1="27" x1="32" y2="32" gradientUnits="userSpaceOnUse" x2="38" gradientTransform="matrix(1 0 0 1 6 1)"/>
 </defs>
 <metadata id="metadata5458"/>
 <g inkscape:label="Capa 1" inkscape:groupmode="layer" id="layer1" transform="matrix(1 0 0 1 -384.57143 -499.798)">
  <path style="fill:url(#linearGradient4416);fill-rule:evenodd" id="path4445" d="M 4 4 L 4 34 L 24 34 L 35 44 L 35 34 L 44 34 L 44 4 L 4 4 z " transform="matrix(1 0 0 1 384.57143 499.798)"/>
  <path style="fill:url(#linearGradient4545);opacity:0.2;fill-rule:evenodd" id="path4443" d="M 14 14 L 14 18 L 16 20 L 8 20 L 14 26 L 8 26 L 16 34 L 30 34 L 40 34 L 20 14 L 18 14 L 18 18 L 14 14 z " transform="matrix(1 0 0 1 384.57143 499.798)"/>
  <path inkscape:connector-curvature="0" style="fill:url(#linearGradient4441)" id="rect4426" d="m 12,14 0,4 -4,0 0,2 4,0 0,4 -4,0 0,2 4,0 0,4 2,0 0,-4 4,0 0,4 2,0 0,-4 4,0 0,-2 -4,0 0,-4 4,0 0,-2 -4,0 0,-4 -2,0 0,4 -4,0 0,-4 z m 2,6 4,0 0,4 -4,0 z" transform="matrix(1 0 0 1 384.57143 499.798)"/>
  <path style="fill:url(#linearGradient4612);opacity:0.2" id="path4608" d="M 33 27 L 31 29 L 37 34 L 37.427734 34 L 40.777344 34 L 41 34 L 33 27 z " transform="matrix(1 0 0 1 384.57143 499.798)"/>
  <path style="fill:url(#linearGradient4628);opacity:0.2" id="path4626" d="M 39 27 L 37 29 L 43 34 L 44 34 L 44 31.375 L 39 27 z " transform="matrix(1 0 0 1 384.57143 499.798)"/>
  <rect width="4" x="420.57144" y="525.79797" rx="2" height="4" style="fill:url(#linearGradient4555)" id="rect4547"/>
  <rect width="4" x="414.57144" y="525.79797" rx="2" height="4" style="fill:url(#linearGradient4559)" id="rect4557"/>
 </g>
</svg>
